!!!COM: Janáček, Leoš [Leo Eugen]
!!!OTL: Šumařovo dítě (The Fiddler’s Child), Ballad for Orchestra
!!!OMV:
!!!example: 135
!!!work: Jan-33
**kern	**dynam	**kern	**dynam	**kern	**dynam	**kern	**dynam	**kern	**dynam	**kern	**kern	**dynam	**kern	**dynam	**kern	**dynam	**kern	**dynam	**kern	**dynam	**kern	**dynam
*part12	*part12	*part11	*part11	*part10	*part10	*part9	*part9	*part8	*part8	*part7	*part6	*part6	*part5	*part5	*part4	*part4	*part3	*part3	*part2	*part2	*part1	*part1
*staff12	*	*staff11	*	*staff10	*	*staff9	*	*staff8	*	*staff7	*staff6	*	*staff5	*	*staff4	*	*staff3	*	*staff2	*	*staff1	*
*I"Contrabass	*	*I"Violoncello	*	*I"Viola	*	*I"Violin II	*	*I"Violin I	*	*I"Violin	*I"Timpani	*	*I"Horn in F	*	*I"Bassoon	*	*I"Clarinet in Bb	*	*I"Oboe	*	*I"Flute	*
*I'Cb.	*	*I'Vc.	*	*I'Vla.	*	*I'Vln. II	*	*I'Vln. I	*	*I'Vln.	*I'Timp.	*	*I'Hn.	*	*I'Bsn.	*	*I'Cl.	*	*I'Ob.	*	*I'Fl.	*
*clefF4	*	*clefF4	*	*clefC3	*	*clefG2	*	*clefG2	*	*clefG2	*clefF4	*	*clefF4	*	*clefF4	*	*clefG2	*	*clefG2	*	*clefG2	*
*k[]	*	*k[]	*	*k[]	*	*k[]	*	*k[]	*	*k[]	*	*	*	*	*k[]	*	*k[]	*	*k[]	*	*k[]	*
*	*	*	*	*	*	*	*	*	*	*	*	*	*	*	*	*	*	*	*	*	*	*
*M2/4	*	*M2/4	*	*M2/4	*	*M2/4	*	*M2/4	*	*M2/4	*M2/4	*	*M2/4	*	*M2/4	*	*M2/4	*	*M2/4	*	*M2/4	*
=149	=	=	=	=	=	=	=	=	=	=	=	=	=	=	=	=	=	=	=	=	=	=
8.CC#XL	.	[2CC#X	.	2r	.	(8.f#XL	.	(8.ff#XL	.	[2aaa#X	2r	.	8AA-X 8A-X	.	2r	.	2r	.	2r	.	(8.aL 8.aa	.
.	.	.	.	.	.	.	.	.	.	.	.	.	8r	.	.	.	.	.	.	.	.	.
16DD#XJk	.	.	.	.	.	16g#XJk	.	16gg#XJk	.	.	.	.	.	.	.	.	.	.	.	.	16bJk 16bb	.
8EEL	.	.	.	.	.	8a'L	.	8aa'L	.	.	.	.	8r	.	.	.	.	.	.	.	8cc#X'L 8ccc#X	.
8EEJ	.	.	.	.	.	8a'J)	.	8aa'J)	.	.	.	.	[8AA- [8A-	.	.	.	.	.	.	.	8cc#'J) 8ccc#	.
=150	=150	=150	=150	=150	=150	=150	=150	=150	=150	=150	=150	=150	=150	=150	=150	=150	=150	=150	=150	=150	=150	=150
8.CC#XL	.	2CC#_	.	2r	.	(8.f#XL	.	(8.ff#XL	.	2aaa#_	2r	.	8AA-] 8A-]	.	2r	.	2r	.	2r	.	(8.aL 8.aa	.
.	.	.	.	.	.	.	.	.	.	.	.	.	8r	.	.	.	.	.	.	.	.	.
16DD#XJk	.	.	.	.	.	16g#XJk	.	16gg#XJk	.	.	.	.	.	.	.	.	.	.	.	.	16bJk 16bb	.
8EEL	.	.	.	.	.	8a'L	.	8aa'L	.	.	.	.	8r	.	.	.	.	.	.	.	8cc#X'L 8ccc#X	.
8EEJ	.	.	.	.	.	8a'J)	.	8aa'J)	.	.	.	.	[8AA-X [8A-X	.	.	.	.	.	.	.	8cc#'J) 8ccc#	.
=151	=151	=151	=151	=151	=151	=151	=151	=151	=151	=151	=151	=151	=151	=151	=151	=151	=151	=151	=151	=151	=151	=151
8.CC#XL	<	2CC#]	.	2r	.	(8.f#XL	.	(8.ff#XL	.	2aaa#_	2r	.	8.AA-L] 8.A-]	<	2r	.	2r	.	2r	.	(8.aL 8.aa	.
16DD#XJk	.	.	.	.	.	16g#XJk	.	16gg#XJk	.	.	.	.	16BB-XJk 16B-X	.	.	.	.	.	.	.	16bJk 16bb	.
8EEL	.	.	.	.	.	8a'L	.	8aa'L	.	.	.	.	8C-XL 8c-X	.	.	.	.	.	.	.	8cc#X'L 8ccc#X	.
8EEJ	.	.	.	.	.	8a'J)	.	8aa'J)	.	.	.	.	8C-J 8c-	[[	.	.	.	.	.	.	8cc#'J) 8ccc#	.
=152	=152	=152	=152	=152	=152	=152	=152	=152	=152	=152	=152	=152	=152	=152	=152	=152	=152	=152	=152	=152	=152	=152
8DD#XL	.	4r	.	4r	.	4r	.	4r	.	2aaa#_	4r	.	8BB-XL 8B-X	[	4r	.	2r	.	2r	.	4r	.
8BBBJ	.	.	.	.	.	.	.	.	.	.	.	.	8GG-XJ 8G-X	.	.	.	.	.	.	.	.	.
4CC#X	[[	(32CC#XLLL	pp	(32c#XLLL 32e	pp	(32eeLLL 32ccc#X	pp	(32gg#XLLL	pp	.	(32C#XLLL	pp	4AA-X 4A-X	.	(32C#XLLL 32E	pp	.	.	.	.	(32eeLLL 32ccc#X	pp
.	.	32CC#'	.	32c#' 32e	.	32ee' 32ccc#	.	32gg#'	.	.	32C#'	.	.	.	32C#' 32E	.	.	.	.	.	32ee' 32ccc#	.
.	.	32CC#'	.	32c#' 32e	.	32ee' 32ccc#	.	32gg#'	.	.	32C#'	.	.	.	32C#' 32E	.	.	.	.	.	32ee' 32ccc#	.
.	.	[32CC#JJ	.	[32c#JJ 32e	.	32eeJJ [32ccc#	.	[32gg#JJ	.	.	[32C#JJ	.	.	.	[32C#JJ 32E	.	.	.	.	.	32eeJJ [32ccc#	.
.	.	8CC#J])	.	8c#J]) 8e	.	8eeJ) 8ccc#]	.	8gg#J])	.	.	8C#J])	.	.	.	8C#J]) 8E	.	.	.	.	.	8eeJ) 8ccc#]	.
=153	=153	=153	=153	=153	=153	=153	=153	=153	=153	=153	=153	=153	=153	=153	=153	=153	=153	=153	=153	=153	=153	=153
2r	[	2r	.	2r	.	(8.eeeL	p	(8.eeeL	p	4aaa#]	2r	.	2r	.	2r	.	(8.cc#XL	p	[2cc#X	pp	2r	.
.	.	.	.	.	.	16fff#XJk	.	16fff#XJk	.	.	.	.	.	.	.	.	16dd#XJk	.	.	.	.	.
.	.	.	.	.	.	8ggg#XL	.	8ggg#XL	.	4r	.	.	.	.	.	.	8ee'L	.	.	.	.	.
.	.	.	.	.	.	8eeeJ)	.	8eeeJ)	.	.	.	.	.	.	.	.	8ee'J)	.	.	.	.	.
=154	=154	=154	=154	=154	=154	=154	=154	=154	=154	=154	=154	=154	=154	=154	=154	=154	=154	=154	=154	=154	=154	=154
2r	.	2r	.	2r	.	(8ddd#XL	.	(8ddd#XL	.	2r	2r	.	2r	.	2r	.	(8.cc#XL	.	2cc#_	.	2r	.
.	.	.	.	.	.	8ccc#XJ	.	8ccc#XJ	.	.	.	.	.	.	.	.	.	.	.	.	.	.
.	.	.	.	.	.	.	.	.	.	.	.	.	.	.	.	.	16dd#XJk	.	.	.	.	.
.	.	.	.	.	.	8aa#XL	.	8aa#XL	.	.	.	.	.	.	.	.	8ee'L	.	.	.	.	.
.	.	.	.	.	.	8gg#XJ)	.	8gg#XJ)	.	.	.	.	.	.	.	.	8ee'J)	.	.	.	.	.
=155	=155	=155	=155	=155	=155	=155	=155	=155	=155	=155	=155	=155	=155	=155	=155	=155	=155	=155	=155	=155	=155	=155
!!pagebreak:original
2r	.	2r	.	2r	.	4r	.	4r	.	2r	2r	.	2r	.	2r	.	(8.cc#XL	.	2cc#_	.	2r	.
.	.	.	.	.	.	.	.	.	.	.	.	.	.	.	.	.	16dd#XJk	.	.	.	.	.
.	.	.	.	.	.	(8ddd#XL	.	(8ddd#XL	.	.	.	.	.	.	.	.	8ee'L	.	.	.	.	.
.	.	.	.	.	.	8ccc#XJ	.	8ccc#XJ	.	.	.	.	.	.	.	.	8ee'J)	.	.	.	.	.
=156	=156	=156	=156	=156	=156	=156	=156	=156	=156	=156	=156	=156	=156	=156	=156	=156	=156	=156	=156	=156	=156	=156
2r	.	2r	.	2r	.	8aa#XL	.	8aa#XL	.	2r	2r	.	2r	.	2r	.	(8.cc#XL	.	2cc#_	.	2r	.
.	.	.	.	.	.	8gg#XJ)	.	8gg#XJ)	.	.	.	.	.	.	.	.	.	.	.	.	.	.
.	.	.	.	.	.	.	.	.	.	.	.	.	.	.	.	.	16dd#XJk	.	.	.	.	.
.	.	.	.	.	.	4r	.	4r	.	.	.	.	.	.	.	.	8ee'L	.	.	.	.	.
.	.	.	.	.	.	.	.	.	.	.	.	.	.	.	.	.	8ee'J)	.	.	.	.	.
=157	=157	=157	=157	=157	=157	=157	=157	=157	=157	=157	=157	=157	=157	=157	=157	=157	=157	=157	=157	=157	=157	=157
2r	.	2r	.	2r	.	4r	.	4r	.	2r	2r	.	2r	.	2r	.	(8.cc#XL	.	2cc#_	.	2r	.
.	.	.	.	.	.	.	.	.	.	.	.	.	.	.	.	.	16dd#XJk	.	.	.	.	.
.	.	.	.	.	.	(8aa#XL	.	(8aa#XL	.	.	.	.	.	.	.	.	8ee'L	.	.	.	.	.
.	.	.	.	.	.	8gg#XJ	.	8gg#XJ	.	.	.	.	.	.	.	.	8ee'J)	.	.	.	.	.
=158	=158	=158	=158	=158	=158	=158	=158	=158	=158	=158	=158	=158	=158	=158	=158	=158	=158	=158	=158	=158	=158	=158
2r	.	2r	.	2r	.	8ff#XL	.	8ff#XL	.	2r	2r	.	2r	.	2r	.	(8.cc#XL	.	2cc#_	.	2r	.
.	.	.	.	.	.	8eeJ)	.	8eeJ)	.	.	.	.	.	.	.	.	.	.	.	.	.	.
.	.	.	.	.	.	.	.	.	.	.	.	.	.	.	.	.	16dd#XJk	.	.	.	.	.
.	.	.	.	.	.	4r	.	4r	.	.	.	.	.	.	.	.	8ee'L	.	.	.	.	.
.	.	.	.	.	.	.	.	.	.	.	.	.	.	.	.	.	8ee'J)	.	.	.	.	.
=159	=159	=159	=159	=159	=159	=159	=159	=159	=159	=159	=159	=159	=159	=159	=159	=159	=159	=159	=159	=159	=159	=159
2r	.	2r	.	2r	.	(8ff#XL	.	(8ff#XL	.	2r	2r	.	2r	.	2r	.	(8.cc#XL	.	2cc#]	.	2r	.
.	.	.	.	.	.	8eeJ	.	8eeJ	.	.	.	.	.	.	.	.	.	.	.	.	.	.
.	.	.	.	.	.	.	.	.	.	.	.	.	.	.	.	.	16dd#XJk	.	.	.	.	.
.	.	.	.	.	.	8dd#XL	.	8dd#XL	.	.	.	.	.	.	.	.	8ee'L	.	.	.	.	.
.	.	.	.	.	.	8cc#XJ)	.	8cc#XJ)	.	.	.	.	.	.	.	.	8ee'J)	.	.	.	.	.
=160	=160	=160	=160	=160	=160	=160	=160	=160	=160	=160	=160	=160	=160	=160	=160	=160	=160	=160	=160	=160	=160	=160
2r	.	2r	.	2r	.	(12bL	.	(12bL	.	2r	2r	.	2r	.	2r	.	[2ee	.	(8.eeL	.	2r	.
.	.	.	.	.	.	12a#X	.	12a#X	.	.	.	.	.	.	.	.	.	.	.	.	.	.
.	.	.	.	.	.	12dd#X	.	12dd#X	.	.	.	.	.	.	.	.	.	.	.	.	.	.
.	.	.	.	.	.	.	.	.	.	.	.	.	.	.	.	.	.	.	16ff#XJk	.	.	.
.	.	.	.	.	.	12cc#X	.	12cc#X	.	.	.	.	.	.	.	.	.	.	8gg#X'L	.	.	.
.	.	.	.	.	.	12b	.	12b	.	.	.	.	.	.	.	.	.	.	.	.	.	.
.	.	.	.	.	.	.	.	.	.	.	.	.	.	.	.	.	.	.	8gg#'J)	.	.	.
.	.	.	.	.	.	12a#J)	.	12a#J)	.	.	.	.	.	.	.	.	.	.	.	.	.	.
=161	=161	=161	=161	=161	=161	=161	=161	=161	=161	=161	=161	=161	=161	=161	=161	=161	=161	=161	=161	=161	=161	=161
2r	.	2r	.	2r	.	(12a#XL	.	(12a#XL	.	2r	2r	.	2r	.	2r	.	2ee_	.	(8.eeL	.	2r	.
.	.	.	.	.	.	12g#X	.	12g#X	.	.	.	.	.	.	.	.	.	.	.	.	.	.
.	.	.	.	.	.	12cc#X	.	12cc#X	.	.	.	.	.	.	.	.	.	.	.	.	.	.
.	.	.	.	.	.	.	.	.	.	.	.	.	.	.	.	.	.	.	16ff#XJk	.	.	.
.	.	.	.	.	.	12b	.	12b	.	.	.	.	.	.	.	.	.	.	8gg#X'L	.	.	.
.	.	.	.	.	.	12a#	.	12a#	.	.	.	.	.	.	.	.	.	.	.	.	.	.
.	.	.	.	.	.	.	.	.	.	.	.	.	.	.	.	.	.	.	8gg#'J)	.	.	.
.	.	.	.	.	.	12g#J)	.	12g#J)	.	.	.	.	.	.	.	.	.	.	.	.	.	.
=162	=162	=162	=162	=162	=162	=162	=162	=162	=162	=162	=162	=162	=162	=162	=162	=162	=162	=162	=162	=162	=162	=162
!!pagebreak:original
2r	.	2r	.	2r	.	(12a#XL	.	(12a#XL	.	2r	2r	.	2r	.	2r	.	2een_	.	(8.eeL	.	2r	.
.	.	.	.	.	.	12g#X	.	12g#X	.	.	.	.	.	.	.	.	.	.	.	.	.	.
.	.	.	.	.	.	12b	.	12b	.	.	.	.	.	.	.	.	.	.	.	.	.	.
.	.	.	.	.	.	.	.	.	.	.	.	.	.	.	.	.	.	.	16ff#XJk	.	.	.
.	.	.	.	.	.	12a#	.	12a#	.	.	.	.	.	.	.	.	.	.	8gg#X'L	.	.	.
.	.	.	.	.	.	12g#	.	12g#	.	.	.	.	.	.	.	.	.	.	.	.	.	.
.	.	.	.	.	.	.	.	.	.	.	.	.	.	.	.	.	.	.	8gg#'J)	.	.	.
.	.	.	.	.	.	12f#XJ)	.	12f#XJ)	.	.	.	.	.	.	.	.	.	.	.	.	.	.
=163	=163	=163	=163	=163	=163	=163	=163	=163	=163	=163	=163	=163	=163	=163	=163	=163	=163	=163	=163	=163	=163	=163
2r	.	2r	.	2r	.	(12f#XL	<	(12f#XL	<	2r	2r	.	2r	.	2r	.	2een_	<	(8.eeL	<	2r	.
.	.	.	.	.	.	12e	.	12e	.	.	.	.	.	.	.	.	.	.	.	.	.	.
.	.	.	.	.	.	12g#X	.	12g#X	.	.	.	.	.	.	.	.	.	.	.	.	.	.
.	.	.	.	.	.	.	.	.	.	.	.	.	.	.	.	.	.	.	16ff#XJk	.	.	.
.	.	.	.	.	.	12f#	.	12f#	.	.	.	.	.	.	.	.	.	.	8gg#X'L	.	.	.
.	.	.	.	.	.	12e	.	12e	.	.	.	.	.	.	.	.	.	.	.	.	.	.
.	.	.	.	.	.	.	.	.	.	.	.	.	.	.	.	.	.	.	8gg#'J)	.	.	.
.	.	.	.	.	.	12d#XJ)	[[	12d#XJ)	[[	.	.	.	.	.	.	.	.	.	.	.	.	.
=164	=164	=164	=164	=164	=164	=164	=164	=164	=164	=164	=164	=164	=164	=164	=164	=164	=164	=164	=164	=164	=164	=164
2r	.	2r	.	2r	.	(12eL	[	(12eL	[	2r	2r	.	2r	.	2r	.	2een]	[[	(8.eeL	.	2r	.
.	.	.	.	.	.	12d#X	.	12d#X	.	.	.	.	.	.	.	.	.	.	.	.	.	.
.	.	.	.	.	.	12f#X	.	12f#X	.	.	.	.	.	.	.	.	.	.	.	.	.	.
.	.	.	.	.	.	.	.	.	.	.	.	.	.	.	.	.	.	.	16ff#XJk	.	.	.
.	.	.	.	.	.	12e	.	12e	.	.	.	.	.	.	.	.	.	.	8gg#X'L	.	.	.
.	.	.	.	.	.	12d#	.	12d#	.	.	.	.	.	.	.	.	.	.	.	.	.	.
.	.	.	.	.	.	.	.	.	.	.	.	.	.	.	.	.	.	.	8gg#'J)	[[	.	.
.	.	.	.	.	.	12c#XJ)	.	12c#XJ)	.	.	.	.	.	.	.	.	.	.	.	.	.	.
=165	=165	=165	=165	=165	=165	=165	=165	=165	=165	=165	=165	=165	=165	=165	=165	=165	=165	=165	=165	=165	=165	=165
(12BBBL	f	(12BBL	f	(12BL	f	[2c#X	.	[2c#X	.	2r	2r	.	2r	.	4r	.	[2een	[[	[2gg#X	[	2r	.
12AAA#X	.	12AA#X	.	12A#X	.	.	.	.	.	.	.	.	.	.	.	.	.	.	.	.	.	.
12DD#X	.	12D#X	.	12d#X	.	.	.	.	.	.	.	.	.	.	.	.	.	.	.	.	.	.
12CC#X	.	12C#X	.	12c#X	.	.	.	.	.	.	.	.	.	.	8.r	.	.	.	.	.	.	.
12BBB	.	12BB	.	12B	.	.	.	.	.	.	.	.	.	.	.	.	.	.	.	.	.	.
12AAA#J)	.	12AA#J)	.	12A#J)	.	.	.	.	.	.	.	.	.	.	.	.	.	.	.	.	.	.
.	.	.	.	.	.	.	.	.	.	.	.	.	.	.	32C#XLLL	<	.	.	.	.	.	.
.	.	.	.	.	.	.	.	.	.	.	.	.	.	.	32C#JJJ	.	.	.	.	.	.	.
=166	=166	=166	=166	=166	=166	=166	=166	=166	=166	=166	=166	=166	=166	=166	=166	=166	=166	=166	=166	=166	=166	=166
(12BBBL	.	(12BBL	.	(12BL	.	2c#]	[[	2c#]	[[	2r	2r	.	2r	.	4r	.	2een]	[	2gg#]	.	2r	.
12AAA#X	.	12AA#X	.	12A#X	.	.	.	.	.	.	.	.	.	.	.	.	.	.	.	.	.	.
12DD#X	.	12D#X	.	12d#X	.	.	.	.	.	.	.	.	.	.	.	.	.	.	.	.	.	.
12CC#X	.	12C#X	.	12c#X	.	.	.	.	.	.	.	.	.	.	8r	.	.	.	.	.	.	.
12BBB	.	12BB	.	12B	.	.	.	.	.	.	.	.	.	.	.	.	.	.	.	.	.	.
.	.	.	.	.	.	.	.	.	.	.	.	.	.	.	24C#XLL	[	.	.	.	.	.	.
12AAA#J)	.	12AA#J)	.	12A#J)	.	.	.	.	.	.	.	.	.	.	24C#	.	.	.	.	.	.	.
.	.	.	.	.	.	.	.	.	.	.	.	.	.	.	24C#JJ	.	.	.	.	.	.	.
=167	=167	=167	=167	=167	=167	=167	=167	=167	=167	=167	=167	=167	=167	=167	=167	=167	=167	=167	=167	=167	=167	=167
12r	.	12r	.	12r	.	(8.c#XL	[	(8.c#XL	[	2r	2r	.	2r	.	2r	.	2r	.	2r	.	2r	.
12r	.	12r	.	12r	.	.	.	.	.	.	.	.	.	.	.	.	.	.	.	.	.	.
(12BBB	.	(12BB	.	(12B	.	.	.	.	.	.	.	.	.	.	.	.	.	.	.	.	.	.
.	.	.	.	.	.	16d#XJk	.	16d#XJk	.	.	.	.	.	.	.	.	.	.	.	.	.	.
12BBBL	.	12BBL	.	12BL	.	8e~L	.	8e~L	.	.	.	.	.	.	.	.	.	.	.	.	.	.
12BBB	.	12BB	.	12B	.	.	.	.	.	.	.	.	.	.	.	.	.	.	.	.	.	.
.	.	.	.	.	.	8e~J)	.	8e~J)	.	.	.	.	.	.	.	.	.	.	.	.	.	.
12AAA#XJ)	.	12AA#XJ)	.	12A#XJ)	.	.	.	.	.	.	.	.	.	.	.	.	.	.	.	.	.	.
=168	=168	=168	=168	=168	=168	=168	=168	=168	=168	=168	=168	=168	=168	=168	=168	=168	=168	=168	=168	=168	=168	=168
!!pagebreak:original
12r	.	12r	.	12r	.	8d#XL	.	8d#XL	.	2r	4r	.	2r	.	4r	.	2r	.	2r	.	4r	.
12r	.	12r	.	12r	.	.	.	.	.	.	.	.	.	.	.	.	.	.	.	.	.	.
.	.	.	.	.	.	8BJ	.	8BJ	.	.	.	.	.	.	.	.	.	.	.	.	.	.
(12BB	.	(12B	.	(12B	.	.	.	.	.	.	.	.	.	.	.	.	.	.	.	.	.	.
12BBL	.	12BL	.	12BL	.	4c#X	.	4c#X	.	.	(32C#XLLL	f	.	.	(32C#XLLL 32E	f	.	.	.	.	(32eeLLL 32ccc#X	f
.	.	.	.	.	.	.	.	.	.	.	32C#'	.	.	.	32C#' 32E	.	.	.	.	.	32ee' 32ccc#	.
.	.	.	.	.	.	.	.	.	.	.	32C#'	.	.	.	32C#' 32E	.	.	.	.	.	32ee' 32ccc#	.
12BB	.	12B	.	12B	.	.	.	.	.	.	.	.	.	.	.	.	.	.	.	.	.	.
.	.	.	.	.	.	.	.	.	.	.	[32C#JJ	.	.	.	[32C#JJ [32E	.	.	.	.	.	32eeJJ [32ccc#	.
.	.	.	.	.	.	.	.	.	.	.	8C#J])	.	.	.	8C#J]) 8E]	.	.	.	.	.	8eeJ) 8ccc#]	.
12AA#XJ)	.	12A#XJ)	.	12A#XJ)	.	.	.	.	.	.	.	.	.	.	.	.	.	.	.	.	.	.
=169	=169	=169	=169	=169	=169	=169	=169	=169	=169	=169	=169	=169	=169	=169	=169	=169	=169	=169	=169	=169	=169	=169
12r	.	12r	.	12r	.	2r	.	2r	.	2r	4r	.	2r	.	4r	.	2r	.	2r	.	4r	.
12r	.	12r	.	12r	.	.	.	.	.	.	.	.	.	.	.	.	.	.	.	.	.	.
(12AA#X	.	(12A#X	.	(12A#X	.	.	.	.	.	.	.	.	.	.	.	.	.	.	.	.	.	.
12AA#L	.	12A#L	.	12A#L	.	.	.	.	.	.	(32C#XLLL	.	.	.	(32C#XLLL 32E	.	.	.	.	.	(32eeLLL 32ccc#X	.
.	.	.	.	.	.	.	.	.	.	.	32C#'	.	.	.	32C#' 32E	.	.	.	.	.	32ee' 32ccc#	.
.	.	.	.	.	.	.	.	.	.	.	32C#'	.	.	.	32C#' 32E	.	.	.	.	.	32ee' 32ccc#	.
12AA#	.	12A#	.	12A#	.	.	.	.	.	.	.	.	.	.	.	.	.	.	.	.	.	.
.	.	.	.	.	.	.	.	.	.	.	[32C#JJ	.	.	.	[32C#JJ [32E	.	.	.	.	.	32eeJJ [32ccc#	.
.	.	.	.	.	.	.	.	.	.	.	8C#J])	.	.	.	8C#J]) 8E]	.	.	.	.	.	8eeJ) 8ccc#]	.
12GG#XJ)	.	12G#XJ)	.	12G#XJ)	.	.	.	.	.	.	.	.	.	.	.	.	.	.	.	.	.	.
=170	=170	=170	=170	=170	=170	=170	=170	=170	=170	=170	=170	=170	=170	=170	=170	=170	=170	=170	=170	=170	=170	=170
12r	.	12r	.	12r	.	2r	.	2r	.	2r	4r	.	2r	.	4r	.	2r	.	2r	.	4r	.
12r	.	12r	.	12r	.	.	.	.	.	.	.	.	.	.	.	.	.	.	.	.	.	.
(12GGn	.	(12Gn	.	(12Gn	.	.	.	.	.	.	.	.	.	.	.	.	.	.	.	.	.	.
12GGL	.	12GL	.	12GL	.	.	.	.	.	.	(32C#XLLL	.	.	.	(32C#XLLL 32E	.	.	.	.	.	(32eeLLL 32ccc#X	.
.	.	.	.	.	.	.	.	.	.	.	32C#'	.	.	.	32C#' 32E	.	.	.	.	.	32ee' 32ccc#	.
.	.	.	.	.	.	.	.	.	.	.	32C#'	.	.	.	32C#' 32E	.	.	.	.	.	32ee' 32ccc#	.
12GG	.	12G	.	12G	.	.	.	.	.	.	.	.	.	.	.	.	.	.	.	.	.	.
.	.	.	.	.	.	.	.	.	.	.	[32C#JJ	.	.	.	[32C#JJ [32E	.	.	.	.	.	32eeJJ [32ccc#	.
.	.	.	.	.	.	.	.	.	.	.	8C#J])	.	.	.	8C#J]) 8E]	.	.	.	.	.	8eeJ) 8ccc#]	.
12FF#XJ)	.	12F#XJ)	.	12F#XJ)	.	.	.	.	.	.	.	.	.	.	.	.	.	.	.	.	.	.
=171	=171	=171	=171	=171	=171	=171	=171	=171	=171	=171	=171	=171	=171	=171	=171	=171	=171	=171	=171	=171	=171	=171
*M4/4	*	*M4/4	*	*M4/4	*	*M4/4	*	*M4/4	*	*M4/4	*M4/4	*	*M4/4	*	*M4/4	*	*M4/4	*	*M4/4	*	*M4/4	*
*	*	*	*	*	*	*	*	*	*	*	*	*	*	*	*^	*	*^	*	*^	*	*^	*
1r	.	1r	.	6b	ff	6bb	ff	6bb	ff	1r	1r	.	1r	.	4B^^t	1B	ff	4bb^^t	1bbn	ff	4bb^^t	1bb	ff	4bb^^t	1bb	ff
.	.	.	.	6b	.	6bb	.	6bb	.	.	.	.	.	.	.	.	.	.	.	.	.	.	.	.	.	.
.	.	.	.	.	.	.	.	.	.	.	.	.	.	.	4d#X^^	.	.	4eee-X^^	.	.	4ddd#X^^	.	.	4ddd#X^^	.	.
.	.	.	.	6b-X	.	6bb-X	.	6bb-X	.	.	.	.	.	.	.	.	.	.	.	.	.	.	.	.	.	.
.	.	.	.	6b-	.	6bb-	.	6bb-	.	.	.	.	.	.	4dn^^	.	.	4ddd#X^^	.	.	4dddn^^	.	.	4dddn^^	.	.
.	.	.	.	6b-	.	6bb-	.	6bb-	.	.	.	.	.	.	.	.	.	.	.	.	.	.	.	.	.	.
.	.	.	.	.	.	.	.	.	.	.	.	.	.	.	4e^^	.	.	4eeen^^	.	.	4eee^^	.	.	4eee^^	.	.
.	.	.	.	6a-X	.	6aa-X	.	6aa-X	.	.	.	.	.	.	.	.	.	.	.	.	.	.	.	.	.	.
=172	=172	=172	=172	=172	=172	=172	=172	=172	=172	=172	=172	=172	=172	=172	=172	=172	=172	=172	=172	=172	=172	=172	=172	=172	=172	=172
1r	.	1r	.	6a-X	.	6aa-X	.	6aa-X	.	1r	1r	.	1r	.	4d#X^^t	1B	.	4eee-X^^T	1bb	.	4ddd#X^^t	1bb	.	4ddd#X^^t	1bb	.
.	.	.	.	6a-	.	6aa-	.	6aa-	.	.	.	.	.	.	.	.	.	.	.	.	.	.	.	.	.	.
.	.	.	.	.	.	.	.	.	.	.	.	.	.	.	4B^^	.	.	4bbn^^	.	.	4bb^^	.	.	4bb^^	.	.
.	.	.	.	6g	.	6gg	.	6gg	.	.	.	.	.	.	.	.	.	.	.	.	.	.	.	.	.	.
.	.	.	.	6g	.	6gg	.	6gg	.	.	.	.	.	.	4A#X^^	.	.	4bb-X^^	.	.	4aa#X^^	.	.	4aa#X^^	.	.
.	.	.	.	6g	.	6gg	.	6gg	.	.	.	.	.	.	.	.	.	.	.	.	.	.	.	.	.	.
.	.	.	.	.	.	.	.	.	.	.	.	.	.	.	4B^^	.	.	4bbn^^	.	.	4bb^^	.	.	4bb^^	.	.
.	.	.	.	6f	.	6ff	.	6ff	.	.	.	.	.	.	.	.	.	.	.	.	.	.	.	.	.	.
*	*	*	*	*	*	*	*	*	*	*	*	*	*	*	*v	*v	*	*	*	*	*v	*v	*	*v	*v	*
*	*	*	*	*	*	*	*	*	*	*	*	*	*	*	*	*	*v	*v	*	*	*	*	*
==	==	==	==	==	==	==	==	==	==	==	==	==	==	==	==	==	==	==	==	==	==	==
*-	*-	*-	*-	*-	*-	*-	*-	*-	*-	*-	*-	*-	*-	*-	*-	*-	*-	*-	*-	*-	*-	*-
!!!CDT: 1854/07/03-1928/08/12
!!!CBL: Hukvaldy, Moravia
!!!CDL: Moravaská Ostrava, Czech Republic
!!!CNT: Czech
!!!AGN: Orchestral; Programmatic
!!!MCN: Ostrcil, Otakar
!!!MDT: 1917/11/14
!!!MGN: Czech Philharmonic Orchestra
!!!MLC: Prague, Czechia
!!!MPD: 1917
!!!MPN:
!!!ODT: 1913
!!!PDT: 1914
!!!excerpt-start-measure: 149
!!!excerpt-end-measure: 172
!!!excerpt-start-time: 3:10
!!!excerpt-end-time: 3:45
!!!EEV: 2020/01/17
!!!system-decoration: [(s1,s2,s3,s4)]s5[(s6)][(s7,s8,s9,s10,s11,s12)]
!!!ONB: Converted from MusicXML on 2020/01/17
